OTTER-master/projects/Week11-Tutorial/res/luts/green.cube
#Created by: Adobe Photoshop Export Color Lookup Plugin
TITLE "green"
#LUT size
LUT_3D_SIZE 5
#data domain
#LUT data points
DOMAIN_MIN 0.000000 0.000000 0.000000
DOMAIN_MAX 0.903226 0.903226 0.903226
0.000000 0.000000 0.000000
0.219055 0.000000 0.000000
0.444336 0.000000 0.000000
0.672058 0.000000 0.000000
0.901367 0.000000 0.000000
0.000000 0.267975 0.000000
0.219055 0.267975 0.000000
0.444336 0.267975 0.000000
0.672058 0.267975 0.000000
0.901367 0.267975 0.000000
0.000000 0.494843 0.000000
0.219055 0.494843 0.000000
0.444336 0.494843 0.000000
0.672058 0.494843 0.000000
0.901367 0.494843 0.000000
0.000000 0.708466 0.000000
0.219055 0.708466 0.000000
0.444336 0.708466 0.000000
0.672058 0.708466 0.000000
0.901367 0.708466 0.000000
0.000000 0.913849 0.000000
0.219055 0.913849 0.000000
0.444336 0.913849 0.000000
0.672058 0.913849 0.000000
0.901367 0.913849 0.000000
0.000000 0.000000 0.184326
0.219055 0.000000 0.184326
0.444336 0.000000 0.184326
0.672058 0.000000 0.184326
0.901367 0.000000 0.184326
0.000000 0.267975 0.184326
0.219055 0.267975 0.184326
0.444336 0.267975 0.184326
0.672058 0.267975 0.184326
0.901367 0.267975 0.184326
0.000000 0.494843 0.184326
0.219055 0.494843 0.184326
0.444336 0.494843 0.184326
0.672058 0.494843 0.184326
0.901367 0.494843 0.184326
0.000000 0.708466 0.184326
0.219055 0.708466 0.184326
0.444336 0.708466 0.184326
0.672058 0.708466 0.184326
0.901367 0.708466 0.184326
0.000000 0.913849 0.184326
0.219055 0.913849 0.184326
0.444336 0.913849 0.184326
0.672058 0.913849 0.184326
0.901367 0.913849 0.184326
0.000000 0.000000 0.405212
0.219055 0.000000 0.405212
0.444336 0.000000 0.405212
0.672058 0.000000 0.405212
0.901367 0.000000 0.405212
0.000000 0.267975 0.405212
0.219055 0.267975 0.405212
0.444336 0.267975 0.405212
0.672058 0.267975 0.405212
0.901367 0.267975 0.405212
0.000000 0.494843 0.405212
0.219055 0.494843 0.405212
0.444336 0.494843 0.405212
0.672058 0.494843 0.405212
0.901367 0.494843 0.405212
0.000000 0.708466 0.405212
0.219055 0.708466 0.405212
0.444336 0.708466 0.405212
0.672058 0.708466 0.405212
0.901367 0.708466 0.405212
0.000000 0.913849 0.405212
0.219055 0.913849 0.405212
0.444336 0.913849 0.405212
0.672058 0.913849 0.405212
0.901367 0.913849 0.405212
0.000000 0.000000 0.642395
0.219055 0.000000 0.642395
0.444336 0.000000 0.642395
0.672058 0.000000 0.642395
0.901367 0.000000 0.642395
0.000000 0.267975 0.642395
0.219055 0.267975 0.642395
0.444336 0.267975 0.642395
0.672058 0.267975 0.642395
0.901367 0.267975 0.642395
0.000000 0.494843 0.642395
0.219055 0.494843 0.642395
0.444336 0.494843 0.642395
0.672058 0.494843 0.642395
0.901367 0.494843 0.642395
0.000000 0.708466 0.642395
0.219055 0.708466 0.642395
0.444336 0.708466 0.642395
0.672058 0.708466 0.642395
0.901367 0.708466 0.642395
0.000000 0.913849 0.642395
0.219055 0.913849 0.642395
0.444336 0.913849 0.642395
0.672058 0.913849 0.642395
0.901367 0.913849 0.642395
0.000000 0.000000 0.890778
0.219055 0.000000 0.890778
0.444336 0.000000 0.890778
0.672058 0.000000 0.890778
0.901367 0.000000 0.890778
0.000000 0.267975 0.890778
0.219055 0.267975 0.890778
0.444336 0.267975 0.890778
0.672058 0.267975 0.890778
0.901367 0.267975 0.890778
0.000000 0.494843 0.890778
0.219055 0.494843 0.890778
0.444336 0.494843 0.890778
0.672058 0.494843 0.890778
0.901367 0.494843 0.890778
0.000000 0.708466 0.890778
0.219055 0.708466 0.890778
0.444336 0.708466 0.890778
0.672058 0.708466 0.890778
0.901367 0.708466 0.890778
0.000000 0.913849 0.890778
0.219055 0.913849 0.890778
0.444336 0.913849 0.890778
0.672058 0.913849 0.890778
0.901367 0.913849 0.890778
