OTTER-master/projects/Week11-Tutorial/res/luts/green.cube
#Created by: Adobe Photoshop Export Color Lookup Plugin
TITLE "green"
#LUT size
LUT_3D_SIZE 32
#data domain
DOMAIN_MIN 0.0 0.0 0.0
DOMAIN_MAX 1.0 1.0 1.0
#LUT data points
0.000000 0.000000 0.000000
0.030090 0.000000 0.000000
0.061005 0.000000 0.000000
0.092255 0.000000 0.000000
0.123749 0.000000 0.000000
0.155396 0.000000 0.000000
0.187164 0.000000 0.000000
0.219055 0.000000 0.000000
0.251007 0.000000 0.000000
0.283081 0.000000 0.000000
0.315216 0.000000 0.000000
0.347412 0.000000 0.000000
0.379669 0.000000 0.000000
0.411957 0.000000 0.000000
0.444336 0.000000 0.000000
0.476746 0.000000 0.000000
0.509216 0.000000 0.000000
0.541718 0.000000 0.000000
0.574249 0.000000 0.000000
0.606812 0.000000 0.000000
0.639435 0.000000 0.000000
0.672058 0.000000 0.000000
0.704742 0.000000 0.000000
0.737427 0.000000 0.000000
0.770172 0.000000 0.000000
0.802917 0.000000 0.000000
0.835693 0.000000 0.000000
0.868530 0.000000 0.000000
0.901367 0.000000 0.000000
0.934204 0.000000 0.000000
0.967102 0.000000 0.000000
1.000000 0.000000 0.000000
0.000000 0.047882 0.000000
0.030090 0.047882 0.000000
0.061005 0.047882 0.000000
0.092255 0.047882 0.000000
0.123749 0.047882 0.000000
0.155396 0.047882 0.000000
0.187164 0.047882 0.000000
0.219055 0.047882 0.000000
0.251007 0.047882 0.000000
0.283081 0.047882 0.000000
0.315216 0.047882 0.000000
0.347412 0.047882 0.000000
0.379669 0.047882 0.000000
0.411957 0.047882 0.000000
0.444336 0.047882 0.000000
0.476746 0.047882 0.000000
0.509216 0.047882 0.000000
0.541718 0.047882 0.000000
0.574249 0.047882 0.000000
0.606812 0.047882 0.000000
0.639435 0.047882 0.000000
0.672058 0.047882 0.000000
0.704742 0.047882 0.000000
0.737427 0.047882 0.000000
0.770172 0.047882 0.000000
0.802917 0.047882 0.000000
0.835693 0.047882 0.000000
0.868530 0.047882 0.000000
0.901367 0.047882 0.000000
0.934204 0.047882 0.000000
0.967102 0.047882 0.000000
1.000000 0.047882 0.000000
0.000000 0.088440 0.000000
0.030090 0.088440 0.000000
0.061005 0.088440 0.000000
0.092255 0.088440 0.000000
0.123749 0.088440 0.000000
0.155396 0.088440 0.000000
0.187164 0.088440 0.000000
0.219055 0.088440 0.000000
0.251007 0.088440 0.000000
0.283081 0.088440 0.000000
0.315216 0.088440 0.000000
0.347412 0.088440 0.000000
0.379669 0.088440 0.000000
0.411957 0.088440 0.000000
0.444336 0.088440 0.000000
0.476746 0.088440 0.000000
0.509216 0.088440 0.000000
0.541718 0.088440 0.000000
0.574249 0.088440 0.000000
0.606812 0.088440 0.000000
0.639435 0.088440 0.000000
0.672058 0.088440 0.000000
0.704742 0.088440 0.000000
0.737427 0.088440 0.000000
0.770172 0.088440 0.000000
0.802917 0.088440 0.000000
0.835693 0.088440 0.000000
0.868530 0.088440 0.000000
0.901367 0.088440 0.000000
0.934204 0.088440 0.000000
0.967102 0.088440 0.000000
1.000000 0.088440 0.000000
0.000000 0.126587 0.000000
0.030090 0.126587 0.000000
0.061005 0.126587 0.000000
0.092255 0.126587 0.000000
0.123749 0.126587 0.000000
0.155396 0.126587 0.000000
0.187164 0.126587 0.000000
0.219055 0.126587 0.000000
0.251007 0.126587 0.000000
0.283081 0.126587 0.000000
0.315216 0.126587 0.000000
0.347412 0.126587 0.000000
0.379669 0.126587 0.000000
0.411957 0.126587 0.000000
0.444336 0.126587 0.000000
0.476746 0.126587 0.000000
0.509216 0.126587 0.000000
0.541718 0.126587 0.000000
0.574249 0.126587 0.000000
0.606812 0.126587 0.000000
0.639435 0.126587 0.000000
0.672058 0.126587 0.000000
0.704742 0.126587 0.000000
0.737427 0.126587 0.000000
0.770172 0.126587 0.000000
0.802917 0.126587 0.000000
0.835693 0.126587 0.000000
0.868530 0.126587 0.000000
0.901367 0.126587 0.000000
0.934204 0.126587 0.000000
0.967102 0.126587 0.000000
1.000000 0.126587 0.000000
0.000000 0.163330 0.000000
0.030090 0.163330 0.000000
0.061005 0.163330 0.000000
0.092255 0.163330 0.000000
0.123749 0.163330 0.000000
0.155396 0.163330 0.000000
0.187164 0.163330 0.000000
0.219055 0.163330 0.000000
0.251007 0.163330 0.000000
0.283081 0.163330 0.000000
0.315216 0.163330 0.000000
0.347412 0.163330 0.000000
0.379669 0.163330 0.000000
0.411957 0.163330 0.000000
0.444336 0.163330 0.000000
0.476746 0.163330 0.000000
0.509216 0.163330 0.000000
0.541718 0.163330 0.000000
0.574249 0.163330 0.000000
0.606812 0.163330 0.000000
0.639435 0.163330 0.000000
0.672058 0.163330 0.000000
0.704742 0.163330 0.000000
0.737427 0.163330 0.000000
0.770172 0.163330 0.000000
0.802917 0.163330 0.000000
0.835693 0.163330 0.000000
0.868530 0.163330 0.000000
0.901367 0.163330 0.000000
0.934204 0.163330 0.000000
0.967102 0.163330 0.000000
1.000000 0.163330 0.000000
0.000000 0.198975 0.000000
0.030090 0.198975 0.000000
0.061005 0.198975 0.000000
0.092255 0.198975 0.000000
0.123749 0.198975 0.000000
0.155396 0.198975 0.000000
0.187164 0.198975 0.000000
0.219055 0.198975 0.000000
0.251007 0.198975 0.000000
0.283081 0.198975 0.000000
0.315216 0.198975 0.000000
0.347412 0.198975 0.000000
0.379669 0.198975 0.000000
0.411957 0.198975 0.000000
0.444336 0.198975 0.000000
0.476746 0.198975 0.000000
0.509216 0.198975 0.000000
0.541718 0.198975 0.000000
0.574249 0.198975 0.000000
0.606812 0.198975 0.000000
0.639435 0.198975 0.000000
0.672058 0.198975 0.000000
0.704742 0.198975 0.000000
0.737427 0.198975 0.000000
0.770172 0.198975 0.000000
0.802917 0.198975 0.000000
0.835693 0.198975 0.000000
0.868530 0.198975 0.000000
0.901367 0.198975 0.000000
0.934204 0.198975 0.000000
0.967102 0.198975 0.000000
1.000000 0.198975 0.000000
0.000000 0.233795 0.000000
0.030090 0.233795 0.000000
0.061005 0.233795 0.000000
0.092255 0.233795 0.000000
0.123749 0.233795 0.000000
0.155396 0.233795 0.000000
0.187164 0.233795 0.000000
0.219055 0.233795 0.000000
0.251007 0.233795 0.000000
0.283081 0.233795 0.000000
0.315216 0.233795 0.000000
0.347412 0.233795 0.000000
0.379669 0.233795 0.000000
0.411957 0.233795 0.000000
0.444336 0.233795 0.000000
0.476746 0.233795 0.000000
0.509216 0.233795 0.000000
0.541718 0.233795 0.000000
0.574249 0.233795 0.000000
0.606812 0.233795 0.000000
0.639435 0.233795 0.000000
0.672058 0.233795 0.000000
0.704742 0.233795 0.000000
0.737427 0.233795 0.000000
0.770172 0.233795 0.000000
0.802917 0.233795 0.000000
0.835693 0.233795 0.000000
0.868530 0.233795 0.000000
0.901367 0.233795 0.000000
0.934204 0.233795 0.000000
0.967102 0.233795 0.000000
1.000000 0.233795 0.000000
0.000000 0.267975 0.000000
0.030090 0.267975 0.000000
0.061005 0.267975 0.000000
0.092255 0.267975 0.000000
0.123749 0.267975 0.000000
0.155396 0.267975 0.000000
0.187164 0.267975 0.000000
0.219055 0.267975 0.000000
0.251007 0.267975 0.000000
0.283081 0.267975 0.000000
0.315216 0.267975 0.000000
0.347412 0.267975 0.000000
0.379669 0.267975 0.000000
0.411957 0.267975 0.000000
0.444336 0.267975 0.000000
0.476746 0.267975 0.000000
0.509216 0.267975 0.000000
0.541718 0.267975 0.000000
0.574249 0.267975 0.000000
0.606812 0.267975 0.000000
0.639435 0.267975 0.000000
0.672058 0.267975 0.000000
0.704742 0.267975 0.000000
0.737427 0.267975 0.000000
0.770172 0.267975 0.000000
0.802917 0.267975 0.000000
0.835693 0.267975 0.000000
0.868530 0.267975 0.000000
0.901367 0.267975 0.000000
0.934204 0.267975 0.000000
0.967102 0.267975 0.000000
1.000000 0.267975 0.000000
0.000000 0.301575 0.000000
0.030090 0.301575 0.000000
0.061005 0.301575 0.000000
0.092255 0.301575 0.000000
0.123749 0.301575 0.000000
0.155396 0.301575 0.000000
0.187164 0.301575 0.000000
0.219055 0.301575 0.000000
0.251007 0.301575 0.000000
0.283081 0.301575 0.000000
0.315216 0.301575 0.000000
0.347412 0.301575 0.000000
0.379669 0.301575 0.000000
0.411957 0.301575 0.000000
0.444336 0.301575 0.000000
0.476746 0.301575 0.000000
0.509216 0.301575 0.000000
0.541718 0.301575 0.000000
0.574249 0.301575 0.000000
0.606812 0.301575 0.000000
0.639435 0.301575 0.000000
0.672058 0.301575 0.000000
0.704742 0.301575 0.000000
0.737427 0.301575 0.000000
0.770172 0.301575 0.000000
0.802917 0.301575 0.000000
0.835693 0.301575 0.000000
0.868530 0.301575 0.000000
0.901367 0.301575 0.000000
0.934204 0.301575 0.000000
0.967102 0.301575 0.000000
1.000000 0.301575 0.000000
0.000000 0.334717 0.000000
0.030090 0.334717 0.000000
0.061005 0.334717 0.000000
0.092255 0.334717 0.000000
0.123749 0.334717 0.000000
0.155396 0.334717 0.000000
0.187164 0.334717 0.000000
0.219055 0.334717 0.000000
0.251007 0.334717 0.000000
0.283081 0.334717 0.000000
0.315216 0.334717 0.000000
0.347412 0.334717 0.000000
0.379669 0.334717 0.000000
0.411957 0.334717 0.000000
0.444336 0.334717 0.000000
0.476746 0.334717 0.000000
0.509216 0.334717 0.000000
0.541718 0.334717 0.000000
0.574249 0.334717 0.000000
0.606812 0.334717 0.000000
0.639435 0.334717 0.000000
0.672058 0.334717 0.000000
0.704742 0.334717 0.000000
0.737427 0.334717 0.000000
0.770172 0.334717 0.000000
0.802917 0.334717 0.000000
0.835693 0.334717 0.000000
0.868530 0.334717 0.000000
0.901367 0.334717 0.000000
0.934204 0.334717 0.000000
0.967102 0.334717 0.000000
1.000000 0.334717 0.000000
0.000000 0.367401 0.000000
0.030090 0.367401 0.000000
0.061005 0.367401 0.000000
0.092255 0.367401 0.000000
0.123749 0.367401 0.000000
0.155396 0.367401 0.000000
0.187164 0.367401 0.000000
0.219055 0.367401 0.000000
0.251007 0.367401 0.000000
0.283081 0.367401 0.000000
0.315216 0.367401 0.000000
0.347412 0.367401 0.000000
0.379669 0.367401 0.000000
0.411957 0.367401 0.000000
0.444336 0.367401 0.000000
0.476746 0.367401 0.000000
0.509216 0.367401 0.000000
0.541718 0.367401 0.000000
0.574249 0.367401 0.000000
0.606812 0.367401 0.000000
0.639435 0.367401 0.000000
0.672058 0.367401 0.000000
0.704742 0.367401 0.000000
0.737427 0.367401 0.000000
0.770172 0.367401 0.000000
0.802917 0.367401 0.000000
0.835693 0.367401 0.000000
0.868530 0.367401 0.000000
0.901367 0.367401 0.000000
0.934204 0.367401 0.000000
0.967102 0.367401 0.000000
1.000000 0.367401 0.000000
0.000000 0.399750 0.000000
0.030090 0.399750 0.000000
0.061005 0.399750 0.000000
0.092255 0.399750 0.000000
0.123749 0.399750 0.000000
0.155396 0.399750 0.000000
0.187164 0.399750 0.000000
0.219055 0.399750 0.000000
0.251007 0.399750 0.000000
0.283081 0.399750 0.000000
0.315216 0.399750 0.000000
0.347412 0.399750 0.000000
0.379669 0.399750 0.000000
0.411957 0.399750 0.000000
0.444336 0.399750 0.000000
0.476746 0.399750 0.000000
0.509216 0.399750 0.000000
0.541718 0.399750 0.000000
0.574249 0.399750 0.000000
0.606812 0.399750 0.000000
0.639435 0.399750 0.000000
0.672058 0.399750 0.000000
0.704742 0.399750 0.000000
0.737427 0.399750 0.000000
0.770172 0.399750 0.000000
0.802917 0.399750 0.000000
0.835693 0.399750 0.000000
0.868530 0.399750 0.000000
0.901367 0.399750 0.000000
0.934204 0.399750 0.000000
0.967102 0.399750 0.000000
1.000000 0.399750 0.000000
0.000000 0.431732 0.000000
0.030090 0.431732 0.000000
0.061005 0.431732 0.000000
0.092255 0.431732 0.000000
0.123749 0.431732 0.000000
0.155396 0.431732 0.000000
0.187164 0.431732 0.000000
0.219055 0.431732 0.000000
0.251007 0.431732 0.000000
0.283081 0.431732 0.000000
0.315216 0.431732 0.000000
0.347412 0.431732 0.000000
0.379669 0.431732 0.000000
0.411957 0.431732 0.000000
0.444336 0.431732 0.000000
0.476746 0.431732 0.000000
0.509216 0.431732 0.000000
0.541718 0.431732 0.000000
0.574249 0.431732 0.000000
0.606812 0.431732 0.000000
0.639435 0.431732 0.000000
0.672058 0.431732 0.000000
0.704742 0.431732 0.000000
0.737427 0.431732 0.000000
0.770172 0.431732 0.000000
0.802917 0.431732 0.000000
0.835693 0.431732 0.000000
0.868530 0.431732 0.000000
0.901367 0.431732 0.000000
0.934204 0.431732 0.000000
0.967102 0.431732 0.000000
1.000000 0.431732 0.000000
0.000000 0.463440 0.000000
0.030090 0.463440 0.000000
0.061005 0.463440 0.000000
0.092255 0.463440 0.000000
0.123749 0.463440 0.000000
0.155396 0.463440 0.000000
0.187164 0.463440 0.000000
0.219055 0.463440 0.000000
0.251007 0.463440 0.000000
0.283081 0.463440 0.000000
0.315216 0.463440 0.000000
0.347412 0.463440 0.000000
0.379669 0.463440 0.000000
0.411957 0.463440 0.000000
0.444336 0.463440 0.000000
0.476746 0.463440 0.000000
0.509216 0.463440 0.000000
0.541718 0.463440 0.000000
0.574249 0.463440 0.000000
0.606812 0.463440 0.000000
0.639435 0.463440 0.000000
0.672058 0.463440 0.000000
0.704742 0.463440 0.000000
0.737427 0.463440 0.000000
0.770172 0.463440 0.000000
0.802917 0.463440 0.000000
0.835693 0.463440 0.000000
0.868530 0.463440 0.000000
0.901367 0.463440 0.000000
0.934204 0.463440 0.000000
0.967102 0.463440 0.000000
1.000000 0.463440 0.000000
0.000000 0.494843 0.000000
0.030090 0.494843 0.000000
0.061005 0.494843 0.000000
0.092255 0.494843 0.000000
0.123749 0.494843 0.000000
0.155396 0.494843 0.000000
0.187164 0.494843 0.000000
0.219055 0.494843 0.000000
0.251007 0.494843 0.000000
0.283081 0.494843 0.000000
0.315216 0.494843 0.000000
0.347412 0.494843 0.000000
0.379669 0.494843 0.000000
0.411957 0.494843 0.000000
0.444336 0.494843 0.000000
0.476746 0.494843 0.000000
0.509216 0.494843 0.000000
0.541718 0.494843 0.000000
0.574249 0.494843 0.000000
0.606812 0.494843 0.000000
0.639435 0.494843 0.000000
0.672058 0.494843 0.000000
0.704742 0.494843 0.000000
0.737427 0.494843 0.000000
0.770172 0.494843 0.000000
0.802917 0.494843 0.000000
0.835693 0.494843 0.000000
0.868530 0.494843 0.000000
0.901367 0.494843 0.000000
0.934204 0.494843 0.000000
0.967102 0.494843 0.000000
1.000000 0.494843 0.000000
0.000000 0.526001 0.000000
0.030090 0.526001 0.000000
0.061005 0.526001 0.000000
0.092255 0.526001 0.000000
0.123749 0.526001 0.000000
0.155396 0.526001 0.000000
0.187164 0.526001 0.000000
0.219055 0.526001 0.000000
0.251007 0.526001 0.000000
0.283081 0.526001 0.000000
0.315216 0.526001 0.000000
0.347412 0.526001 0.000000
0.379669 0.526001 0.000000
0.411957 0.526001 0.000000
0.444336 0.526001 0.000000
0.476746 0.526001 0.000000
0.509216 0.526001 0.000000
0.541718 0.526001 0.000000
0.574249 0.526001 0.000000
0.606812 0.526001 0.000000
0.639435 0.526001 0.000000
0.672058 0.526001 0.000000
0.704742 0.526001 0.000000
0.737427 0.526001 0.000000
0.770172 0.526001 0.000000
0.802917 0.526001 0.000000
0.835693 0.526001 0.000000
0.868530 0.526001 0.000000
0.901367 0.526001 0.000000
0.934204 0.526001 0.000000
0.967102 0.526001 0.000000
1.000000 0.526001 0.000000
0.000000 0.556946 0.000000
0.030090 0.556946 0.000000
0.061005 0.556946 0.000000
0.092255 0.556946 0.000000
0.123749 0.556946 0.000000
0.155396 0.556946 0.000000
0.187164 0.556946 0.000000
0.219055 0.556946 0.000000
0.251007 0.556946 0.000000
0.283081 0.556946 0.000000
0.315216 0.556946 0.000000
0.347412 0.556946 0.000000
0.379669 0.556946 0.000000
0.411957 0.556946 0.000000
0.444336 0.556946 0.000000
0.476746 0.556946 0.000000
0.509216 0.556946 0.000000
0.541718 0.556946 0.000000
0.574249 0.556946 0.000000
0.606812 0.556946 0.000000
0.639435 0.556946 0.000000
0.672058 0.556946 0.000000
0.704742 0.556946 0.000000
0.737427 0.556946 0.000000
0.770172 0.556946 0.000000
0.802917 0.556946 0.000000
0.835693 0.556946 0.000000
0.868530 0.556946 0.000000
0.901367 0.556946 0.000000
0.934204 0.556946 0.000000
0.967102 0.556946 0.000000
1.000000 0.556946 0.000000
0.000000 0.587646 0.000000
0.030090 0.587646 0.000000
0.061005 0.587646 0.000000
0.092255 0.587646 0.000000
0.123749 0.587646 0.000000
0.155396 0.587646 0.000000
0.187164 0.587646 0.000000
0.219055 0.587646 0.000000
0.251007 0.587646 0.000000
0.283081 0.587646 0.000000
0.315216 0.587646 0.000000
0.347412 0.587646 0.000000
0.379669 0.587646 0.000000
0.411957 0.587646 0.000000
0.444336 0.587646 0.000000
0.476746 0.587646 0.000000
0.509216 0.587646 0.000000
0.541718 0.587646 0.000000
0.574249 0.587646 0.000000
0.606812 0.587646 0.000000
0.639435 0.587646 0.000000
0.672058 0.587646 0.000000
0.704742 0.587646 0.000000
0.737427 0.587646 0.000000
0.770172 0.587646 0.000000
0.802917 0.587646 0.000000
0.835693 0.587646 0.000000
0.868530 0.587646 0.000000
0.901367 0.587646 0.000000
0.934204 0.587646 0.000000
0.967102 0.587646 0.000000
1.000000 0.587646 0.000000
0.000000 0.618134 0.000000
0.030090 0.618134 0.000000
0.061005 0.618134 0.000000
0.092255 0.618134 0.000000
0.123749 0.618134 0.000000
0.155396 0.618134 0.000000
0.187164 0.618134 0.000000
0.219055 0.618134 0.000000
0.251007 0.618134 0.000000
0.283081 0.618134 0.000000
0.315216 0.618134 0.000000
0.347412 0.618134 0.000000
0.379669 0.618134 0.000000
0.411957 0.618134 0.000000
0.444336 0.618134 0.000000
0.476746 0.618134 0.000000
0.509216 0.618134 0.000000
0.541718 0.618134 0.000000
0.574249 0.618134 0.000000
0.606812 0.618134 0.000000
0.639435 0.618134 0.000000
0.672058 0.618134 0.000000
0.704742 0.618134 0.000000
0.737427 0.618134 0.000000
0.770172 0.618134 0.000000
0.802917 0.618134 0.000000
0.835693 0.618134 0.000000
0.868530 0.618134 0.000000
0.901367 0.618134 0.000000
0.934204 0.618134 0.000000
0.967102 0.618134 0.000000
1.000000 0.618134 0.000000
0.000000 0.648438 0.000000
0.030090 0.648438 0.000000
0.061005 0.648438 0.000000
0.092255 0.648438 0.000000
0.123749 0.648438 0.000000
0.155396 0.648438 0.000000
0.187164 0.648438 0.000000
0.219055 0.648438 0.000000
0.251007 0.648438 0.000000
0.283081 0.648438 0.000000
0.315216 0.648438 0.000000
0.347412 0.648438 0.000000
0.379669 0.648438 0.000000
0.411957 0.648438 0.000000
0.444336 0.648438 0.000000
0.476746 0.648438 0.000000
0.509216 0.648438 0.000000
0.541718 0.648438 0.000000
0.574249 0.648438 0.000000
0.606812 0.648438 0.000000
0.639435 0.648438 0.000000
0.672058 0.648438 0.000000
0.704742 0.648438 0.000000
0.737427 0.648438 0.000000
0.770172 0.648438 0.000000
0.802917 0.648438 0.000000
0.835693 0.648438 0.000000
0.868530 0.648438 0.000000
0.901367 0.648438 0.000000
0.934204 0.648438 0.000000
0.967102 0.648438 0.000000
1.000000 0.648438 0.000000
0.000000 0.678528 0.000000
0.030090 0.678528 0.000000
0.061005 0.678528 0.000000
0.092255 0.678528 0.000000
0.123749 0.678528 0.000000
0.155396 0.678528 0.000000
0.187164 0.678528 0.000000
0.219055 0.678528 0.000000
0.251007 0.678528 0.000000
0.283081 0.678528 0.000000
0.315216 0.678528 0.000000
0.347412 0.678528 0.000000
0.379669 0.678528 0.000000
0.411957 0.678528 0.000000
0.444336 0.678528 0.000000
0.476746 0.678528 0.000000
0.509216 0.678528 0.000000
0.541718 0.678528 0.000000
0.574249 0.678528 0.000000
0.606812 0.678528 0.000000
0.639435 0.678528 0.000000
0.672058 0.678528 0.000000
0.704742 0.678528 0.000000
0.737427 0.678528 0.000000
0.770172 0.678528 0.000000
0.802917 0.678528 0.000000
0.835693 0.678528 0.000000
0.868530 0.678528 0.000000
0.901367 0.678528 0.000000
0.934204 0.678528 0.000000
0.967102 0.678528 0.000000
1.000000 0.678528 0.000000
0.000000 0.708466 0.000000
0.030090 0.708466 0.000000
0.061005 0.708466 0.000000
0.092255 0.708466 0.000000
0.123749 0.708466 0.000000
0.155396 0.708466 0.000000
0.187164 0.708466 0.000000
0.219055 0.708466 0.000000
0.251007 0.708466 0.000000
0.283081 0.708466 0.000000
0.315216 0.708466 0.000000
0.347412 0.708466 0.000000
0.379669 0.708466 0.000000
0.411957 0.708466 0.000000
0.444336 0.708466 0.000000
0.476746 0.708466 0.000000
0.509216 0.708466 0.000000
0.541718 0.708466 0.000000
0.574249 0.708466 0.000000
0.606812 0.708466 0.000000
0.639435 0.708466 0.000000
0.672058 0.708466 0.000000
0.704742 0.708466 0.000000
0.737427 0.708466 0.000000
0.770172 0.708466 0.000000
0.802917 0.708466 0.000000
0.835693 0.708466 0.000000
0.868530 0.708466 0.000000
0.901367 0.708466 0.000000
0.934204 0.708466 0.000000
0.967102 0.708466 0.000000
1.000000 0.708466 0.000000
0.000000 0.738251 0.000000
0.030090 0.738251 0.000000
0.061005 0.738251 0.000000
0.092255 0.738251 0.000000
0.123749 0.738251 0.000000
0.155396 0.738251 0.000000
0.187164 0.738251 0.000000
0.219055 0.738251 0.000000
0.251007 0.738251 0.000000
0.283081 0.738251 0.000000
0.315216 0.738251 0.000000
0.347412 0.738251 0.000000
0.379669 0.738251 0.000000
0.411957 0.738251 0.000000
0.444336 0.738251 0.000000
0.476746 0.738251 0.000000
0.509216 0.738251 0.000000
0.541718 0.738251 0.000000
0.574249 0.738251 0.000000
0.606812 0.738251 0.000000
0.639435 0.738251 0.000000
0.672058 0.738251 0.000000
0.704742 0.738251 0.000000
0.737427 0.738251 0.000000
0.770172 0.738251 0.000000
0.802917 0.738251 0.000000
0.835693 0.738251 0.000000
0.868530 0.738251 0.000000
0.901367 0.738251 0.000000
0.934204 0.738251 0.000000
0.967102 0.738251 0.000000
1.000000 0.738251 0.000000
0.000000 0.767853 0.000000
0.030090 0.767853 0.000000
0.061005 0.767853 0.000000
0.092255 0.767853 0.000000
0.123749 0.767853 0.000000
0.155396 0.767853 0.000000
0.187164 0.767853 0.000000
0.219055 0.767853 0.000000
0.251007 0.767853 0.000000
0.283081 0.767853 0.000000
0.315216 0.767853 0.000000
0.347412 0.767853 0.000000
0.379669 0.767853 0.000000
0.411957 0.767853 0.000000
0.444336 0.767853 0.000000
0.476746 0.767853 0.000000
0.509216 0.767853 0.000000
0.541718 0.767853 0.000000
0.574249 0.767853 0.000000
0.606812 0.767853 0.000000
0.639435 0.767853 0.000000
0.672058 0.767853 0.000000
0.704742 0.767853 0.000000
0.737427 0.767853 0.000000
0.770172 0.767853 0.000000
0.802917 0.767853 0.000000
0.835693 0.767853 0.000000
0.868530 0.767853 0.000000
0.901367 0.767853 0.000000
0.934204 0.767853 0.000000
0.967102 0.767853 0.000000
1.000000 0.767853 0.000000
0.000000 0.797333 0.000000
0.030090 0.797333 0.000000
0.061005 0.797333 0.000000
0.092255 0.797333 0.000000
0.123749 0.797333 0.000000
0.155396 0.797333 0.000000
0.187164 0.797333 0.000000
0.219055 0.797333 0.000000
0.251007 0.797333 0.000000
0.283081 0.797333 0.000000
0.315216 0.797333 0.000000
0.347412 0.797333 0.000000
0.379669 0.797333 0.000000
0.411957 0.797333 0.000000
0.444336 0.797333 0.000000
0.476746 0.797333 0.000000
0.509216 0.797333 0.000000
0.541718 0.797333 0.000000
0.574249 0.797333 0.000000
0.606812 0.797333 0.000000
0.639435 0.797333 0.000000
0.672058 0.797333 0.000000
0.704742 0.797333 0.000000
0.737427 0.797333 0.000000
0.770172 0.797333 0.000000
0.802917 0.797333 0.000000
0.835693 0.797333 0.000000
0.868530 0.797333 0.000000
0.901367 0.797333 0.000000
0.934204 0.797333 0.000000
0.967102 0.797333 0.000000
1.000000 0.797333 0.000000
0.000000 0.826660 0.000000
0.030090 0.826660 0.000000
0.061005 0.826660 0.000000
0.092255 0.826660 0.000000
0.123749 0.826660 0.000000
0.155396 0.826660 0.000000
0.187164 0.826660 0.000000
0.219055 0.826660 0.000000
0.251007 0.826660 0.000000
0.283081 0.826660 0.000000
0.315216 0.826660 0.000000
0.347412 0.826660 0.000000
0.379669 0.826660 0.000000
0.411957 0.826660 0.000000
0.444336 0.826660 0.000000
0.476746 0.826660 0.000000
0.509216 0.826660 0.000000
0.541718 0.826660 0.000000
0.574249 0.826660 0.000000
0.606812 0.826660 0.000000
0.639435 0.826660 0.000000
0.672058 0.826660 0.000000
0.704742 0.826660 0.000000
0.737427 0.826660 0.000000
0.770172 0.826660 0.000000
0.802917 0.826660 0.000000
0.835693 0.826660 0.000000
0.868530 0.826660 0.000000
0.901367 0.826660 0.000000
0.934204 0.826660 0.000000
0.967102 0.826660 0.000000
1.000000 0.826660 0.000000
0.000000 0.855865 0.000000
0.030090 0.855865 0.000000
0.061005 0.855865 0.000000
0.092255 0.855865 0.000000
0.123749 0.855865 0.000000
0.155396 0.855865 0.000000
0.187164 0.855865 0.000000
0.219055 0.855865 0.000000
0.251007 0.855865 0.000000
0.283081 0.855865 0.000000
0.315216 0.855865 0.000000
0.347412 0.855865 0.000000
0.379669 0.855865 0.000000
0.411957 0.855865 0.000000
0.444336 0.855865 0.000000
0.476746 0.855865 0.000000
0.509216 0.855865 0.000000
0.541718 0.855865 0.000000
0.574249 0.855865 0.000000
0.606812 0.855865 0.000000
0.639435 0.855865 0.000000
0.672058 0.855865 0.000000
0.704742 0.855865 0.000000
0.737427 0.855865 0.000000
0.770172 0.855865 0.000000
0.802917 0.855865 0.000000
0.835693 0.855865 0.000000
0.868530 0.855865 0.000000
0.901367 0.855865 0.000000
0.934204 0.855865 0.000000
0.967102 0.855865 0.000000
1.000000 0.855865 0.000000
0.000000 0.884949 0.000000
0.030090 0.884949 0.000000
0.061005 0.884949 0.000000
0.092255 0.884949 0.000000
0.123749 0.884949 0.000000
0.155396 0.884949 0.000000
0.187164 0.884949 0.000000
0.219055 0.884949 0.000000
0.251007 0.884949 0.000000
0.283081 0.884949 0.000000
0.315216 0.884949 0.000000
0.347412 0.884949 0.000000
0.379669 0.884949 0.000000
0.411957 0.884949 0.000000
0.444336 0.884949 0.000000
0.476746 0.884949 0.000000
0.509216 0.884949 0.000000
0.541718 0.884949 0.000000
