OTTER-master/projects/Week11-Tutorial/res/luts/green.cube
#Created by: Adobe Photoshop Export Color Lookup Plugin
TITLE "green"
#LUT size
LUT_3D_SIZE 8
#data domain
#LUT data points
DOMAIN_MIN 0.000000 0.000000 0.000000
DOMAIN_MAX 0.903226 0.903226 0.903226
0.000000 0.000000 0.000000
0.123749 0.000000 0.000000
0.251007 0.000000 0.000000
0.379669 0.000000 0.000000
0.509216 0.000000 0.000000
0.639435 0.000000 0.000000
0.770172 0.000000 0.000000
0.901367 0.000000 0.000000
0.000000 0.163330 0.000000
0.123749 0.163330 0.000000
0.251007 0.163330 0.000000
0.379669 0.163330 0.000000
0.509216 0.163330 0.000000
0.639435 0.163330 0.000000
0.770172 0.163330 0.000000
0.901367 0.163330 0.000000
0.000000 0.301575 0.000000
0.123749 0.301575 0.000000
0.251007 0.301575 0.000000
0.379669 0.301575 0.000000
0.509216 0.301575 0.000000
0.639435 0.301575 0.000000
0.770172 0.301575 0.000000
0.901367 0.301575 0.000000
0.000000 0.431732 0.000000
0.123749 0.431732 0.000000
0.251007 0.431732 0.000000
0.379669 0.431732 0.000000
0.509216 0.431732 0.000000
0.639435 0.431732 0.000000
0.770172 0.431732 0.000000
0.901367 0.431732 0.000000
0.000000 0.556946 0.000000
0.123749 0.556946 0.000000
0.251007 0.556946 0.000000
0.379669 0.556946 0.000000
0.509216 0.556946 0.000000
0.639435 0.556946 0.000000
0.770172 0.556946 0.000000
0.901367 0.556946 0.000000
0.000000 0.678528 0.000000
0.123749 0.678528 0.000000
0.251007 0.678528 0.000000
0.379669 0.678528 0.000000
0.509216 0.678528 0.000000
0.639435 0.678528 0.000000
0.770172 0.678528 0.000000
0.901367 0.678528 0.000000
0.000000 0.797333 0.000000
0.123749 0.797333 0.000000
0.251007 0.797333 0.000000
0.379669 0.797333 0.000000
0.509216 0.797333 0.000000
0.639435 0.797333 0.000000
0.770172 0.797333 0.000000
0.901367 0.797333 0.000000
0.000000 0.913849 0.000000
0.123749 0.913849 0.000000
0.251007 0.913849 0.000000
0.379669 0.913849 0.000000
0.509216 0.913849 0.000000
0.639435 0.913849 0.000000
0.770172 0.913849 0.000000
0.901367 0.913849 0.000000
0.000000 0.000000 0.097595
0.123749 0.000000 0.097595
0.251007 0.000000 0.097595
0.379669 0.000000 0.097595
0.509216 0.000000 0.097595
0.639435 0.000000 0.097595
0.770172 0.000000 0.097595
0.901367 0.000000 0.097595
0.000000 0.163330 0.097595
0.123749 0.163330 0.097595
0.251007 0.163330 0.097595
0.379669 0.163330 0.097595
0.509216 0.163330 0.097595
0.639435 0.163330 0.097595
0.770172 0.163330 0.097595
0.901367 0.163330 0.097595
0.000000 0.301575 0.097595
0.123749 0.301575 0.097595
0.251007 0.301575 0.097595
0.379669 0.301575 0.097595
0.509216 0.301575 0.097595
0.639435 0.301575 0.097595
0.770172 0.301575 0.097595
0.901367 0.301575 0.097595
0.000000 0.431732 0.097595
0.123749 0.431732 0.097595
0.251007 0.431732 0.097595
0.379669 0.431732 0.097595
0.509216 0.431732 0.097595
0.639435 0.431732 0.097595
0.770172 0.431732 0.097595
0.901367 0.431732 0.097595
0.000000 0.556946 0.097595
0.123749 0.556946 0.097595
0.251007 0.556946 0.097595
0.379669 0.556946 0.097595
0.509216 0.556946 0.097595
0.639435 0.556946 0.097595
0.770172 0.556946 0.097595
0.901367 0.556946 0.097595
0.000000 0.678528 0.097595
0.123749 0.678528 0.097595
0.251007 0.678528 0.097595
0.379669 0.678528 0.097595
0.509216 0.678528 0.097595
0.639435 0.678528 0.097595
0.770172 0.678528 0.097595
0.901367 0.678528 0.097595
0.000000 0.797333 0.097595
0.123749 0.797333 0.097595
0.251007 0.797333 0.097595
0.379669 0.797333 0.097595
0.509216 0.797333 0.097595
0.639435 0.797333 0.097595
0.770172 0.797333 0.097595
0.901367 0.797333 0.097595
0.000000 0.913849 0.097595
0.123749 0.913849 0.097595
0.251007 0.913849 0.097595
0.379669 0.913849 0.097595
0.509216 0.913849 0.097595
0.639435 0.913849 0.097595
0.770172 0.913849 0.097595
0.901367 0.913849 0.097595
0.000000 0.000000 0.214539
0.123749 0.000000 0.214539
0.251007 0.000000 0.214539
0.379669 0.000000 0.214539
0.509216 0.000000 0.214539
0.639435 0.000000 0.214539
0.770172 0.000000 0.214539
0.901367 0.000000 0.214539
0.000000 0.163330 0.214539
0.123749 0.163330 0.214539
0.251007 0.163330 0.214539
0.379669 0.163330 0.214539
0.509216 0.163330 0.214539
0.639435 0.163330 0.214539
0.770172 0.163330 0.214539
0.901367 0.163330 0.214539
0.000000 0.301575 0.214539
0.123749 0.301575 0.214539
0.251007 0.301575 0.214539
0.379669 0.301575 0.214539
0.509216 0.301575 0.214539
0.639435 0.301575 0.214539
0.770172 0.301575 0.214539
0.901367 0.301575 0.214539
0.000000 0.431732 0.214539
0.123749 0.431732 0.214539
0.251007 0.431732 0.214539
0.379669 0.431732 0.214539
0.509216 0.431732 0.214539
0.639435 0.431732 0.214539
0.770172 0.431732 0.214539
0.901367 0.431732 0.214539
0.000000 0.556946 0.214539
0.123749 0.556946 0.214539
0.251007 0.556946 0.214539
0.379669 0.556946 0.214539
0.509216 0.556946 0.214539
0.639435 0.556946 0.214539
0.770172 0.556946 0.214539
0.901367 0.556946 0.214539
0.000000 0.678528 0.214539
0.123749 0.678528 0.214539
0.251007 0.678528 0.214539
0.379669 0.678528 0.214539
0.509216 0.678528 0.214539
0.639435 0.678528 0.214539
0.770172 0.678528 0.214539
0.901367 0.678528 0.214539
0.000000 0.797333 0.214539
0.123749 0.797333 0.214539
0.251007 0.797333 0.214539
0.379669 0.797333 0.214539
0.509216 0.797333 0.214539
0.639435 0.797333 0.214539
0.770172 0.797333 0.214539
0.901367 0.797333 0.214539
0.000000 0.913849 0.214539
0.123749 0.913849 0.214539
0.251007 0.913849 0.214539
0.379669 0.913849 0.214539
0.509216 0.913849 0.214539
0.639435 0.913849 0.214539
0.770172 0.913849 0.214539
0.901367 0.913849 0.214539
0.000000 0.000000 0.340088
0.123749 0.000000 0.340088
0.251007 0.000000 0.340088
0.379669 0.000000 0.340088
0.509216 0.000000 0.340088
0.639435 0.000000 0.340088
0.770172 0.000000 0.340088
0.901367 0.000000 0.340088
0.000000 0.163330 0.340088
0.123749 0.163330 0.340088
0.251007 0.163330 0.340088
0.379669 0.163330 0.340088
0.509216 0.163330 0.340088
0.639435 0.163330 0.340088
0.770172 0.163330 0.340088
0.901367 0.163330 0.340088
0.000000 0.301575 0.340088
0.123749 0.301575 0.340088
0.251007 0.301575 0.340088
0.379669 0.301575 0.340088
0.509216 0.301575 0.340088
0.639435 0.301575 0.340088
0.770172 0.301575 0.340088
0.901367 0.301575 0.340088
0.000000 0.431732 0.340088
0.123749 0.431732 0.340088
0.251007 0.431732 0.340088
0.379669 0.431732 0.340088
0.509216 0.431732 0.340088
0.639435 0.431732 0.340088
0.770172 0.431732 0.340088
0.901367 0.431732 0.340088
0.000000 0.556946 0.340088
0.123749 0.556946 0.340088
0.251007 0.556946 0.340088
0.379669 0.556946 0.340088
0.509216 0.556946 0.340088
0.639435 0.556946 0.340088
0.770172 0.556946 0.340088
0.901367 0.556946 0.340088
0.000000 0.678528 0.340088
0.123749 0.678528 0.340088
0.251007 0.678528 0.340088
0.379669 0.678528 0.340088
0.509216 0.678528 0.340088
0.639435 0.678528 0.340088
0.770172 0.678528 0.340088
0.901367 0.678528 0.340088
0.000000 0.797333 0.340088
0.123749 0.797333 0.340088
0.251007 0.797333 0.340088
0.379669 0.797333 0.340088
0.509216 0.797333 0.340088
0.639435 0.797333 0.340088
0.770172 0.797333 0.340088
0.901367 0.797333 0.340088
0.000000 0.913849 0.340088
0.123749 0.913849 0.340088
0.251007 0.913849 0.340088
0.379669 0.913849 0.340088
0.509216 0.913849 0.340088
0.639435 0.913849 0.340088
0.770172 0.913849 0.340088
0.901367 0.913849 0.340088
0.000000 0.000000 0.471619
0.123749 0.000000 0.471619
0.251007 0.000000 0.471619
0.379669 0.000000 0.471619
0.509216 0.000000 0.471619
0.639435 0.000000 0.471619
0.770172 0.000000 0.471619
0.901367 0.000000 0.471619
0.000000 0.163330 0.471619
0.123749 0.163330 0.471619
0.251007 0.163330 0.471619
0.379669 0.163330 0.471619
0.509216 0.163330 0.471619
0.639435 0.163330 0.471619
0.770172 0.163330 0.471619
0.901367 0.163330 0.471619
0.000000 0.301575 0.471619
0.123749 0.301575 0.471619
0.251007 0.301575 0.471619
0.379669 0.301575 0.471619
0.509216 0.301575 0.471619
0.639435 0.301575 0.471619
0.770172 0.301575 0.471619
0.901367 0.301575 0.471619
0.000000 0.431732 0.471619
0.123749 0.431732 0.471619
0.251007 0.431732 0.471619
0.379669 0.431732 0.471619
0.509216 0.431732 0.471619
0.639435 0.431732 0.471619
0.770172 0.431732 0.471619
0.901367 0.431732 0.471619
0.000000 0.556946 0.471619
0.123749 0.556946 0.471619
0.251007 0.556946 0.471619
0.379669 0.556946 0.471619
0.509216 0.556946 0.471619
0.639435 0.556946 0.471619
0.770172 0.556946 0.471619
0.901367 0.556946 0.471619
0.000000 0.678528 0.471619
0.123749 0.678528 0.471619
0.251007 0.678528 0.471619
0.379669 0.678528 0.471619
0.509216 0.678528 0.471619
0.639435 0.678528 0.471619
0.770172 0.678528 0.471619
0.901367 0.678528 0.471619
0.000000 0.797333 0.471619
0.123749 0.797333 0.471619
0.251007 0.797333 0.471619
0.379669 0.797333 0.471619
0.509216 0.797333 0.471619
0.639435 0.797333 0.471619
0.770172 0.797333 0.471619
0.901367 0.797333 0.471619
0.000000 0.913849 0.471619
0.123749 0.913849 0.471619
0.251007 0.913849 0.471619
0.379669 0.913849 0.471619
0.509216 0.913849 0.471619
0.639435 0.913849 0.471619
0.770172 0.913849 0.471619
0.901367 0.913849 0.471619
0.000000 0.000000 0.607758
0.123749 0.000000 0.607758
0.251007 0.000000 0.607758
0.379669 0.000000 0.607758
0.509216 0.000000 0.607758
0.639435 0.000000 0.607758
0.770172 0.000000 0.607758
0.901367 0.000000 0.607758
0.000000 0.163330 0.607758
0.123749 0.163330 0.607758
0.251007 0.163330 0.607758
0.379669 0.163330 0.607758
0.509216 0.163330 0.607758
0.639435 0.163330 0.607758
0.770172 0.163330 0.607758
0.901367 0.163330 0.607758
0.000000 0.301575 0.607758
0.123749 0.301575 0.607758
0.251007 0.301575 0.607758
0.379669 0.301575 0.607758
0.509216 0.301575 0.607758
0.639435 0.301575 0.607758
0.770172 0.301575 0.607758
0.901367 0.301575 0.607758
0.000000 0.431732 0.607758
0.123749 0.431732 0.607758
0.251007 0.431732 0.607758
0.379669 0.431732 0.607758
0.509216 0.431732 0.607758
0.639435 0.431732 0.607758
0.770172 0.431732 0.607758
0.901367 0.431732 0.607758
0.000000 0.556946 0.607758
0.123749 0.556946 0.607758
0.251007 0.556946 0.607758
0.379669 0.556946 0.607758
0.509216 0.556946 0.607758
0.639435 0.556946 0.607758
0.770172 0.556946 0.607758
0.901367 0.556946 0.607758
0.000000 0.678528 0.607758
0.123749 0.678528 0.607758
0.251007 0.678528 0.607758
0.379669 0.678528 0.607758
0.509216 0.678528 0.607758
0.639435 0.678528 0.607758
0.770172 0.678528 0.607758
0.901367 0.678528 0.607758
0.000000 0.797333 0.607758
0.123749 0.797333 0.607758
0.251007 0.797333 0.607758
0.379669 0.797333 0.607758
0.509216 0.797333 0.607758
0.639435 0.797333 0.607758
0.770172 0.797333 0.607758
0.901367 0.797333 0.607758
0.000000 0.913849 0.607758
0.123749 0.913849 0.607758
0.251007 0.913849 0.607758
0.379669 0.913849 0.607758
0.509216 0.913849 0.607758
0.639435 0.913849 0.607758
0.770172 0.913849 0.607758
0.901367 0.913849 0.607758
0.000000 0.000000 0.747650
0.123749 0.000000 0.747650
0.251007 0.000000 0.747650
0.379669 0.000000 0.747650
0.509216 0.000000 0.747650
0.639435 0.000000 0.747650
0.770172 0.000000 0.747650
0.901367 0.000000 0.747650
0.000000 0.163330 0.747650
0.123749 0.163330 0.747650
0.251007 0.163330 0.747650
0.379669 0.163330 0.747650
0.509216 0.163330 0.747650
0.639435 0.163330 0.747650
0.770172 0.163330 0.747650
0.901367 0.163330 0.747650
0.000000 0.301575 0.747650
0.123749 0.301575 0.747650
0.251007 0.301575 0.747650
0.379669 0.301575 0.747650
0.509216 0.301575 0.747650
0.639435 0.301575 0.747650
0.770172 0.301575 0.747650
0.901367 0.301575 0.747650
0.000000 0.431732 0.747650
0.123749 0.431732 0.747650
0.251007 0.431732 0.747650
0.379669 0.431732 0.747650
0.509216 0.431732 0.747650
0.639435 0.431732 0.747650
0.770172 0.431732 0.747650
0.901367 0.431732 0.747650
0.000000 0.556946 0.747650
0.123749 0.556946 0.747650
0.251007 0.556946 0.747650
0.379669 0.556946 0.747650
0.509216 0.556946 0.747650
0.639435 0.556946 0.747650
0.770172 0.556946 0.747650
0.901367 0.556946 0.747650
0.000000 0.678528 0.747650
0.123749 0.678528 0.747650
0.251007 0.678528 0.747650
0.379669 0.678528 0.747650
0.509216 0.678528 0.747650
0.639435 0.678528 0.747650
0.770172 0.678528 0.747650
0.901367 0.678528 0.747650
0.000000 0.797333 0.747650
0.123749 0.797333 0.747650
0.251007 0.797333 0.747650
0.379669 0.797333 0.747650
0.509216 0.797333 0.747650
0.639435 0.797333 0.747650
0.770172 0.797333 0.747650
0.901367 0.797333 0.747650
0.000000 0.913849 0.747650
0.123749 0.913849 0.747650
0.251007 0.913849 0.747650
0.379669 0.913849 0.747650
0.509216 0.913849 0.747650
0.639435 0.913849 0.747650
0.770172 0.913849 0.747650
0.901367 0.913849 0.747650
0.000000 0.000000 0.890778
0.123749 0.000000 0.890778
0.251007 0.000000 0.890778
0.379669 0.000000 0.890778
0.509216 0.000000 0.890778
0.639435 0.000000 0.890778
0.770172 0.000000 0.890778
0.901367 0.000000 0.890778
0.000000 0.163330 0.890778
0.123749 0.163330 0.890778
0.251007 0.163330 0.890778
0.379669 0.163330 0.890778
0.509216 0.163330 0.890778
0.639435 0.163330 0.890778
0.770172 0.163330 0.890778
0.901367 0.163330 0.890778
0.000000 0.301575 0.890778
0.123749 0.301575 0.890778
0.251007 0.301575 0.890778
0.379669 0.301575 0.890778
0.509216 0.301575 0.890778
0.639435 0.301575 0.890778
0.770172 0.301575 0.890778
0.901367 0.301575 0.890778
0.000000 0.431732 0.890778
0.123749 0.431732 0.890778
0.251007 0.431732 0.890778
0.379669 0.431732 0.890778
0.509216 0.431732 0.890778
0.639435 0.431732 0.890778
0.770172 0.431732 0.890778
0.901367 0.431732 0.890778
0.000000 0.556946 0.890778
0.123749 0.556946 0.890778
0.251007 0.556946 0.890778
0.379669 0.556946 0.890778
0.509216 0.556946 0.890778
0.639435 0.556946 0.890778
0.770172 0.556946 0.890778
0.901367 0.556946 0.890778
0.000000 0.678528 0.890778
0.123749 0.678528 0.890778
0.251007 0.678528 0.890778
0.379669 0.678528 0.890778
0.509216 0.678528 0.890778
0.639435 0.678528 0.890778
0.770172 0.678528 0.890778
0.901367 0.678528 0.890778
0.000000 0.797333 0.890778
0.123749 0.797333 0.890778
0.251007 0.797333 0.890778
0.379669 0.797333 0.890778
0.509216 0.797333 0.890778
0.639435 0.797333 0.890778
0.770172 0.797333 0.890778
0.901367 0.797333 0.890778
0.000000 0.913849 0.890778
0.123749 0.913849 0.890778
0.251007 0.913849 0.890778
0.379669 0.913849 0.890778
0.509216 0.913849 0.890778
0.639435 0.913849 0.890778
0.770172 0.913849 0.890778
0.901367 0.913849 0.890778
